packages/ndla-icons/svg/editor/Math.svg

<svg height="24" viewBox="0 0 24 24" width="24" xmlns="http://www.w3.org/2000/svg" data-license="Apache License 2.0" data-source="Material Design">
    <path d="M9,2H4A2,2 0 0,0 2,4V9A2,2 0 0,0 4,11H9A2,2 0 0,0 11,9V4A2,2 0 0,0 9,2M9,7H4V6H9V7M20,13H15A2,2 0 0,0 13,15V20A2,2 0 0,0 15,22H20A2,2 0 0,0 22,20V15A2,2 0 0,0 20,13M20,19H15V18H20V19M20,17H15V16H20V17M20,2H15A2,2 0 0,0 13,4V9A2,2 0 0,0 15,11H20A2,2 0 0,0 22,9V4A2,2 0 0,0 20,2M20,7H18V9H17V7H15V6H17V4H18V6H20V7M9,13H4A2,2 0 0,0 2,15V20A2,2 0 0,0 4,22H9A2,2 0 0,0 11,20V15A2,2 0 0,0 9,13M8.62,18.91L7.91,19.62L6.5,18.21L5.09,19.62L4.38,18.91L5.79,17.5L4.38,16.09L5.09,15.38L6.5,16.79L7.91,15.38L8.62,16.09L7.21,17.5L8.62,18.91Z" />
</svg>

<svg xmlns="http://www.w3.org/2000/svg" data-license="Apache License 2.0" data-source="Material Design" viewBox="0 0 24 24">
  <path d="M9 2H4a2 2 0 0 0-2 2v5a2 2 0 0 0 2 2h5a2 2 0 0 0 2-2V4a2 2 0 0 0-2-2m0 5H4V6h5v1m11 6h-5a2 2 0 0 0-2 2v5a2 2 0 0 0 2 2h5a2 2 0 0 0 2-2v-5a2 2 0 0 0-2-2m0 6h-5v-1h5v1m0-2h-5v-1h5v1m0-15h-5a2 2 0 0 0-2 2v5a2 2 0 0 0 2 2h5a2 2 0 0 0 2-2V4a2 2 0 0 0-2-2m0 5h-2v2h-1V7h-2V6h2V4h1v2h2v1M9 13H4a2 2 0 0 0-2 2v5a2 2 0 0 0 2 2h5a2 2 0 0 0 2-2v-5a2 2 0 0 0-2-2m-.4 6-.7.6-1.4-1.4-1.4 1.4-.7-.7 1.4-1.4-1.4-1.4.7-.7 1.4 1.4 1.4-1.4.7.7-1.4 1.4 1.4 1.4Z"/>
</svg>
